X:277
T:James Byrne's
T:Maids of Tullyknockbrine, The
T:Rat in the Thatch, The
R:reel
D:Paul McGrattan & Paul O'Shaughnessy: Within a Mile of Dublin
D:De Danann: Jacket of Batteries
Z:id:hn-reel-277
M:C|
K:G
G2dG BdGB|dGBd ecAF|G2dG Bcde|1 dBcA BGAF:|2 dBcA BG~G2||
egfg egfe|d2fd Adfd|egfg efga|bgaf geed|
efga bge^c|defg afdB|~G3A Bcde|dBcA BGFA||

